!!!SOCIAL_FUNCTION: war songs
!!!PDT:	1929
!!!LING_GROUP: Caddoan
!!!LANG: Non-Tone
!!!REG: Oklahoma
!!!COM: Anon.
!!!OTL: Song Concerning Iron Shirt
!!!ODT: <1920//
!!!MPN: Tutukrawitsu [He overtook the enemy, Wicita Blain]
!!!MLC: Pawnee, Oklahoma, United States of America
!! Song was recorded either 1919 or 1920.
!!!AGN: monody
!!!AMT: irregular
!!!RWG: Transcribed pitches, durations, and meters are only approximate.
!! Drum Tempo:  MM126
!! Drum-rhythm: (4 4 4 4 4 4)
**kern	**silbe	**words	**words
*ICvox	*LPawnee	*LPawnee	*LEnglish
*Imale	*	*	*
*clefF4	*	*	*
*k[f#c#g#d#a#]	*	*	*
*M2/4	*M2/4	*M2/4	*M2/4
*MM108	*MM108	*MM108	*MM108
*[A,A]	*[A,A]	*[A,A]	*[A,A]
*>A	*>A	*>A	*>A
=!|:1	=!|:1	=!|:1	=!|:1
4d#	We	We	Now
4f#	ra	ra	yonder
=2	=2	=2	=2
4d#	tsa	tsa	lie
(8d#	we	we	now
8c#)	|	.	.
=3	=3	=3	=3
4c#	ra	ra	yonder
4c#	tsa	tsa	lie
=4	=4	=4	=4
4d#	we	we	now
4d#	ra	ra	yonder
*M3/4	*M3/4	*M3/4	*M3/4
=5	=5	=5	=5
4c#	tsa	tsa	lie
(8c#	we	we	now
8B)	|	.	.
4B	ra	ra	yonder
=6	=6	=6	=6
4G#	tsa	tsa	lie
(8G#	we	we	now
8F#)	|	.	.
4G#	ra	ra	yonder
*M2/4	*M2/4	*M2/4	*M2/4
=7	=7	=7	=7
4D#	tsa	tsa	lie
(8D#	we	we	now
8BB)	|	.	.
=8	=8	=8	=8
4BB	ra	ra	yonder
4BB	tsa	tsa	lie
=9	=9	=9	=9
4D#	pa-	papitsisu	metal
8D#	-pi-	.	.
8D#	-tsi-	.	.
=10	=10	=10	=10
4BB	-su	.	.
4D#	ruks	ruks	did
=11	=11	=11	=11
4BB	tax	tax	have
8BB	ka-	kasiu	shirt on
[8BB	-si-	.	.
=12	=12	=12	=12
4BB]	|	.	.
4BB	-u	.	.
=13	=13	=13	=13
[2BB	e	.	.
=14	=14	=14	=14
2BB_	|	.	.
=15	=15	=15	=15
4BB]	|	.	.
4d#	ra	ra	have
=16	=16	=16	=16
8.c#	ru-	rute	is
16c#	-te	.	.
(8c#	ra-	raku	sitting, put one side
8B)	|	.	.
=17	=17	=17	=17
4G#	-ku	.	.
4G#	ru	ru	have
*M3/4	*M3/4	*M3/4	*M3/4
=18	=18	=18	=18
4F#	tsiks	tsiks	him
(8G#	ta	ta	have
8D#)	|	.	.
! slur added	!	!	!
(8D#	is-	isti	protection
8BB)	|	.	.
*M2/4	*M2/4	*M2/4	*M2/4
=19	=19	=19	=19
4BB	-ti	.	.
4BB	ra	ra	have
=20	=20	=20	=20
4D#	pa-	papitsisu	metal
8D#	-pi-	.	.
8D#	-tsi-	.	.
=21	=21	=21	=21
4B	-su	.	.
(8D#	ruks	ruks	did
8BB)	|	.	.
=22	=22	=22	=22
4BB	tax	tax	have
8BB	ka-	kasiu	shirt on
[8BB	-si-	.	.
=23	=23	=23	=23
4BB]	|	.	.
4BB	-u	.	.
=24	=24	=24	=24
[2BB	a	.	.
=25	=25	=25	=25
4BB]	|	.	.
4BB	a	.	.
=:|!	=:|!	=:|!	=:|!
*-	*-	*-	*-
!!!HAO: [no description]
!!!HTX: [no free translation]
!!!CNT: Pawnee
!!!TXO: Pawnee
!!!OCY: United States
!!!OCL: Frances Densmore
!!!YOR: Frances Densmore, "Pawnee Music"
!!!YOR: Bulletin 93, page 60, No. 31
!!!PPR: Smithsonian Institution, Bureau of American Ethnology
!!!PPR: Government Printing Office
!!!PDT: 1926
!!!PPP: Washington, DC, United States of America
!!!YEC: Electronic Copyright 2000 David Huron
!!!YER: September 2000
!!!YEN: United States of America
!!!ENC: David Huron
!!!RDT: September 3, 2000
!!!EEV: Release 1.0
!!!AIN: tom, vox
